client/assets/icons/cart_icon.svg

<svg width="25" height="25" viewBox="0 0 25 25" xmlns="http://www.w3.org/2000/svg">
<path d="M24.6604 12.4345C23.0288 0.770147 21.6121 0 12.5063 0C3.38511 0 1.96702 0.767291 0.339538 12.4192C-0.370225 17.5015 0.0185298 20.4647 1.64015 22.3286C3.58578 24.5634 7.09257 25 12.4934 25C17.9027 25 21.415 24.562 23.3614 22.3256C24.9814 20.4647 25.3702 17.5071 24.6604 12.4345ZM21.7448 20.9195C20.3407 22.5338 17.1646 22.8573 12.4944 22.8573C7.83264 22.8573 4.66214 22.5336 3.25877 20.9208C2.10108 19.5923 1.85597 17.0607 2.46325 12.7149C3.93995 2.14344 4.42417 2.14344 12.507 2.14344C20.5743 2.14344 21.0573 2.14344 22.5381 12.7308C23.144 17.0677 22.8997 19.5927 21.7448 20.9195Z"></path>
<path d="M16.0731 5.00006C15.7888 5.00006 15.5162 5.11294 15.3152 5.31388C15.1141 5.51481 15.0012 5.78733 15.0012 6.0715C15.0012 6.73454 14.7377 7.37043 14.2686 7.83927C13.7996 8.30812 13.1634 8.57151 12.5 8.57151C11.8367 8.57151 11.2005 8.30812 10.7314 7.83927C10.2624 7.37043 9.99885 6.73454 9.99885 6.0715C9.99885 5.78733 9.88591 5.51481 9.68488 5.31388C9.48386 5.11294 9.21121 5.00006 8.92691 5.00006C8.64262 5.00006 8.36997 5.11294 8.16894 5.31388C7.96792 5.51481 7.85498 5.78733 7.85498 6.0715C7.85498 7.30287 8.34437 8.4838 9.21548 9.35451C10.0866 10.2252 11.2681 10.7144 12.5 10.7144C13.732 10.7144 14.9135 10.2252 15.7846 9.35451C16.6557 8.4838 17.1451 7.30287 17.1451 6.0715C17.1451 5.78733 17.0321 5.51481 16.8311 5.31388C16.6301 5.11294 16.3574 5.00006 16.0731 5.00006Z"></path>
</svg>

<svg width="25" height="25" xmlns="http://www.w3.org/2000/svg"><path d="M24.66 12.434C23.03.77 21.612 0 12.506 0 3.386 0 1.967.767.34 12.42c-.71 5.082-.321 8.045 1.3 9.909C3.586 24.563 7.093 25 12.493 25c5.41 0 8.922-.438 10.868-2.674 1.62-1.861 2.01-4.819 1.3-9.892Zm-2.915 8.486c-1.404 1.614-4.58 1.937-9.25 1.937-4.662 0-7.833-.323-9.236-1.936-1.158-1.329-1.403-3.86-.796-8.206C3.94 2.143 4.424 2.143 12.507 2.143c8.067 0 8.55 0 10.031 10.588.606 4.337.362 6.862-.793 8.188Z"/><path d="M16.073 5a1.072 1.072 0 0 0-1.072 1.072 2.5 2.5 0 0 1-2.501 2.5 2.502 2.502 0 0 1-2.501-2.5 1.071 1.071 0 0 0-2.144 0 4.642 4.642 0 0 0 4.645 4.642 4.646 4.646 0 0 0 4.645-4.643 1.071 1.071 0 0 0-1.072-1.07Z"/></svg>
